packages/core/src/svgs/keep.svg

<svg width="24" height="24" viewBox="0 0 24 24" fill="none" xmlns="http://www.w3.org/2000/svg">
<g clip-path="url(#clip0_31_12415)">
<path d="M0 0H24V24H0V0Z" fill="#49DBB4"/>
<path fill-rule="evenodd" clip-rule="evenodd" d="M11.9999 19.7142C13.013 19.7142 14.0161 19.5147 14.9521 19.127C15.888 18.7393 16.7384 18.1711 17.4548 17.4548C18.1711 16.7384 18.7393 15.888 19.127 14.9521C19.5147 14.0161 19.7142 13.013 19.7142 11.9999C19.7142 10.9869 19.5147 9.98374 19.127 9.0478C18.7393 8.11186 18.1711 7.26144 17.4548 6.54511C16.7384 5.82877 15.888 5.26054 14.9521 4.87286C14.0161 4.48518 13.013 4.28564 11.9999 4.28564C9.95397 4.28564 7.99182 5.0984 6.54511 6.54511C5.0984 7.99182 4.28564 9.95397 4.28564 11.9999C4.28564 14.0459 5.0984 16.008 6.54511 17.4548C7.99182 18.9015 9.95397 19.7142 11.9999 19.7142ZM9.4285 8.57136H8.57136V10.2856H8.99993V13.7142H8.57136V15.4285H11.5714V13.7142H11.1428V12.6428H11.6528L12.5185 13.7142H12.4285V15.4285H15.4285V13.7142H14.8885L13.3971 11.9914L14.8414 10.2856H15.4285V8.57136H12.4285V10.2856H12.5571L11.5885 11.3571H11.1428V10.2856H11.5714V8.57136H10.7142V8.99993H10.2856V8.57136H9.85707V8.99993H9.4285V8.57136Z" fill="#090806"/>
</g>
<defs>
<clipPath id="clip0_31_12415">
<rect width="24" height="24" fill="white"/>
</clipPath>
</defs>
</svg>

<svg xmlns="http://www.w3.org/2000/svg" width="24" height="24" fill="none" viewBox="0 0 24 24"><g clip-path="url(#a)"><path fill="#49DBB4" d="M0 0h24v24H0z"/><path fill="#090806" fill-rule="evenodd" d="M12 19.714a7.714 7.714 0 1 0 0-15.428 7.714 7.714 0 0 0 0 15.428M9.428 8.571h-.857v1.715H9v3.428H8.57v1.714h3v-1.714h-.428v-1.071h.51l.865 1.071h-.09v1.714h3v-1.714h-.54l-1.49-1.723 1.443-1.705h.588V8.57h-3v1.715h.128l-.969 1.071h-.445v-1.071h.428V8.57h-.857V9h-.428V8.57h-.429V9H9.43z" clip-rule="evenodd"/></g><defs><clipPath id="a"><path fill="#fff" d="M0 0h24v24H0z"/></clipPath></defs></svg>
